apps/scalable/camera/camera.svg

<svg xmlns="http://www.w3.org/2000/svg" style="isolation:isolate" width="256" height="256"><defs><filter id="a" width="270.648" height="254.338" x="-7.32" y="2.95" filterUnits="userSpaceOnUse"><feGaussianBlur xmlns="http://www.w3.org/2000/svg" in="SourceGraphic" stdDeviation="4.294"/><feOffset xmlns="http://www.w3.org/2000/svg" dy="4" result="pf_100_offsetBlur"/><feFlood xmlns="http://www.w3.org/2000/svg" flood-opacity=".4"/><feComposite xmlns="http://www.w3.org/2000/svg" in2="pf_100_offsetBlur" operator="in" result="pf_100_dropShadow"/><feBlend xmlns="http://www.w3.org/2000/svg" in="SourceGraphic" in2="pf_100_dropShadow"/></filter></defs><g filter="url(#a)"><linearGradient id="b" x1=".233" x2=".933" y1="-.071" y2=".995" gradientTransform="matrix(244.648 0 0 228.338 5.676 11.947)" gradientUnits="userSpaceOnUse"><stop offset="0%" stop-color="#e8e8e8"/><stop offset="100%" stop-color="#f5f5f5"/></linearGradient><path fill="url(#b)" d="M165.685 11.947c74.055 0 84.639 10.557 84.639 84.544v59.251c0 73.986-10.584 84.543-84.639 84.543h-75.37c-74.055 0-84.639-10.557-84.639-84.543V96.491c0-73.987 10.584-84.544 84.639-84.544h75.37z"/></g><path fill="#FFF" d="M5.676 85.032v70.4c0 73.986 10.584 84.544 84.639 84.544h75.37c74.055 0 84.639-10.558 84.639-84.544v-70.4H5.676z" opacity=".3"/><circle fill="#DF382C" r="1" transform="translate(217.704 40.179) scale(8.155)" vector-effect="non-scaling-stroke"/><defs><filter id="c" width="187.607" height="187.607" x="34.2" y="33.02" filterUnits="userSpaceOnUse"><feGaussianBlur xmlns="http://www.w3.org/2000/svg" stdDeviation="1.76"/></filter></defs><circle fill-opacity=".996" r="1" transform="matrix(0 -89.704 -89.704 0 128 126.826)" vector-effect="non-scaling-stroke" opacity=".1" filter="url(#c)"/><defs><filter id="d" width="244.995" height="244.995" x="5.5" y="4.33" filterUnits="userSpaceOnUse"><feGaussianBlur xmlns="http://www.w3.org/2000/svg" stdDeviation="14.08"/></filter></defs><g opacity=".4" filter="url(#d)"><linearGradient id="e" x2="1" y1=".5" y2=".5" gradientTransform="matrix(2 0 0 2 -1 -1)" gradientUnits="userSpaceOnUse"><stop offset="0%" stop-opacity="0"/><stop offset="73.295%"/><stop offset="100%" stop-opacity="0"/></linearGradient><circle fill="url(#e)" r="1" transform="matrix(0 -89.704 -89.704 0 128 126.826)" vector-effect="non-scaling-stroke"/></g><circle fill="#F2F2F2" r="1" transform="matrix(0 -89.704 -89.704 0 128 125.806)" vector-effect="non-scaling-stroke"/><circle fill="#FFF" r="1" transform="matrix(0 -81.549 -81.549 0 128 126.826)" vector-effect="non-scaling-stroke"/><circle fill="#46444A" r="1" transform="matrix(0 -81.549 -81.549 0 128 125.806)" vector-effect="non-scaling-stroke"/><g opacity=".1"><radialGradient id="f" cx=".5" cy=".5" r="96" fx=".5" fy=".5" gradientTransform="matrix(0 163.1 -163.099 0 46.451 44.256)" gradientUnits="userSpaceOnUse"><stop offset="0%" stop-opacity="0"/><stop offset="89.867%" stop-opacity="0"/><stop offset="94.933%" stop-opacity=".262"/><stop offset="100%"/></radialGradient><path fill="url(#f)" d="M127.999 44.256c-45.038.001-81.549 36.512-81.548 81.55-.001 45.039 36.51 81.55 81.548 81.55a81.544 81.544 0 0 0 81.55-81.55 81.546 81.546 0 0 0-81.55-81.55zm0 29.177c28.925 0 52.373 23.448 52.373 52.373 0 28.925-23.448 52.374-52.373 52.374-28.925 0-52.373-23.449-52.373-52.374s23.448-52.373 52.373-52.373z"/></g><circle fill="#A7A7F1" r="1" transform="matrix(0 -65.24 -65.24 0 128 125.806)" vector-effect="non-scaling-stroke"/><circle fill="#8F76E4" r="1" transform="matrix(0 -61.162 -61.162 0 128 125.806)" vector-effect="non-scaling-stroke"/><circle fill="#8C59D9" r="1" transform="matrix(0 -40.775 -40.775 0 128 125.806)" vector-effect="non-scaling-stroke"/><circle fill="#7839B7" r="1" transform="scale(-20.387 20.387) rotate(-82.001 .408 6.7)" vector-effect="non-scaling-stroke"/><circle fill="#FFF" r="1" transform="scale(6.116) rotate(-8 148.708 -149.599)" vector-effect="non-scaling-stroke" opacity=".3"/><circle fill="#FFF" r="1" transform="rotate(-8.03 1017.332 -788.793) scale(2.039)" vector-effect="non-scaling-stroke" opacity=".3"/><circle fill="#FFF" r="1" transform="translate(154.504 99.303) scale(24.465)" vector-effect="non-scaling-stroke" opacity=".2"/><path fill="#FFF" d="M128 36.102a89.705 89.705 0 0 0-89.704 89.704c.012.282.026.565.041.846C38.99 77.593 78.936 38.159 128 38.141c49.198.02 89.199 39.663 89.663 88.858.016-.398.03-.795.041-1.193A89.706 89.706 0 0 0 128 36.102z" opacity=".4"/><g opacity=".4"><linearGradient id="g" x1=".517" x2=".517" y2="1"><stop offset="0%" stop-color="#fff"/><stop offset="12.5%" stop-opacity=".098" stop-color="#fff"/><stop offset="92.5%" stop-opacity=".098"/><stop offset="100%" stop-opacity=".498"/></linearGradient><path fill="none" stroke="url(#g)" stroke-linecap="round" stroke-linejoin="round" stroke-width="4.077" d="M165.685 11.947c74.055 0 84.639 10.557 84.639 84.544v59.251c0 73.986-10.584 84.543-84.639 84.543h-75.37c-74.055 0-84.639-10.557-84.639-84.543V96.491c0-73.987 10.584-84.544 84.639-84.544h75.37z" vector-effect="non-scaling-stroke"/></g></svg>

<svg xmlns="http://www.w3.org/2000/svg" style="isolation:isolate" width="256" height="256" viewBox="0 0 256 256">
 <defs>
  <filter id="IKODjhFCKgURICRdRsyLXVT63ymLTJuH" width="270.648" height="254.338" x="-7.32" y="2.95" filterUnits="userSpaceOnUse">
   <feGaussianBlur xmlns="http://www.w3.org/2000/svg" in="SourceGraphic" stdDeviation="4.294"/>
   <feOffset xmlns="http://www.w3.org/2000/svg" dx="0" dy="4" result="pf_100_offsetBlur"/>
   <feFlood xmlns="http://www.w3.org/2000/svg" flood-opacity=".4"/>
   <feComposite xmlns="http://www.w3.org/2000/svg" in2="pf_100_offsetBlur" operator="in" result="pf_100_dropShadow"/>
   <feBlend xmlns="http://www.w3.org/2000/svg" in="SourceGraphic" in2="pf_100_dropShadow" mode="normal"/>
  </filter>
 </defs>
 <g filter="url(#IKODjhFCKgURICRdRsyLXVT63ymLTJuH)">
  <linearGradient id="_lgradient_46" x1=".233" x2=".933" y1="-.071" y2=".995" gradientTransform="matrix(244.648,0,0,228.338,5.676,11.947)" gradientUnits="userSpaceOnUse">
   <stop offset="0%" style="stop-color:rgb(232,232,232)"/>
   <stop offset="100%" style="stop-color:rgb(245,245,245)"/>
  </linearGradient>
  <path fill="url(#_lgradient_46)" d="M 165.685 11.947 C 239.74 11.947 250.324 22.504 250.324 96.491 L 250.324 155.742 C 250.324 229.728 239.74 240.285 165.685 240.285 L 90.315 240.285 C 16.26 240.285 5.676 229.728 5.676 155.742 L 5.676 96.491 C 5.676 22.504 16.26 11.947 90.315 11.947 L 165.685 11.947 Z"/>
 </g>
 <g>
  <g opacity=".3">
   <path fill="#FFFFFF" d="M 5.676 85.032 L 5.676 155.432 C 5.676 229.418 16.26 239.976 90.315 239.976 L 165.685 239.976 C 239.74 239.976 250.324 229.418 250.324 155.432 L 250.324 85.032 L 5.676 85.032 Z"/>
  </g>
  <circle fill="#DF382C" cx="0" cy="0" r="1" transform="matrix(8.155,0,0,8.155,217.704,40.179)" vector-effect="non-scaling-stroke"/>
  <defs>
   <filter id="9WgbJVNrstgh600Ql7qQIAis535XDduE" width="187.607" height="187.607" x="34.2" y="33.02" filterUnits="userSpaceOnUse">
    <feGaussianBlur xmlns="http://www.w3.org/2000/svg" stdDeviation="1.76"/>
   </filter>
  </defs>
  <g opacity=".1" filter="url(#9WgbJVNrstgh600Ql7qQIAis535XDduE)">
   <circle fill-opacity=".996" cx="0" cy="0" r="1" transform="matrix(0,-89.704,-89.704,0,128,126.826)" vector-effect="non-scaling-stroke"/>
  </g>
  <defs>
   <filter id="cxyUrOF3NRLUzTgHuRAVvMSVOEwv3AJP" width="244.995" height="244.995" x="5.5" y="4.33" filterUnits="userSpaceOnUse">
    <feGaussianBlur xmlns="http://www.w3.org/2000/svg" stdDeviation="14.08"/>
   </filter>
  </defs>
  <g opacity=".4" filter="url(#cxyUrOF3NRLUzTgHuRAVvMSVOEwv3AJP)">
   <linearGradient id="_lgradient_47" x1="0" x2="1" y1=".5" y2=".5" gradientTransform="matrix(2,0,0,2,-1,-1)" gradientUnits="userSpaceOnUse">
    <stop offset="0%" stop-opacity="0" style="stop-color:rgb(0,0,0)"/>
    <stop offset="73.295%" style="stop-color:rgb(0,0,0)"/>
    <stop offset="100%" stop-opacity="0" style="stop-color:rgb(0,0,0)"/>
   </linearGradient>
   <circle fill="url(#_lgradient_47)" cx="0" cy="0" r="1" transform="matrix(0,-89.704,-89.704,0,128,126.826)" vector-effect="non-scaling-stroke"/>
  </g>
  <circle fill="#F2F2F2" cx="0" cy="0" r="1" transform="matrix(0,-89.704,-89.704,0,128,125.806)" vector-effect="non-scaling-stroke"/>
  <circle fill="#FFFFFF" cx="0" cy="0" r="1" transform="matrix(0,-81.549,-81.549,0,128,126.826)" vector-effect="non-scaling-stroke"/>
  <circle fill="#46444A" cx="0" cy="0" r="1" transform="matrix(0,-81.549,-81.549,0,128,125.806)" vector-effect="non-scaling-stroke"/>
  <g opacity=".1">
   <radialGradient id="_rgradient_2" cx=".5" cy=".5" r="96" fx=".5" fy=".5" gradientTransform="matrix(0,163.1,-163.099,0,46.451,44.256)" gradientUnits="userSpaceOnUse">
    <stop offset="0%" stop-opacity="0" style="stop-color:rgb(0,0,0)"/>
    <stop offset="89.867%" stop-opacity="0" style="stop-color:rgb(0,0,0)"/>
    <stop offset="94.933%" stop-opacity=".262" style="stop-color:rgb(0,0,0)"/>
    <stop offset="100%" style="stop-color:rgb(0,0,0)"/>
   </radialGradient>
   <path fill="url(#_rgradient_2)" d="M 127.999 44.256 C 82.961 44.257 46.45 80.768 46.451 125.806 C 46.45 170.845 82.961 207.356 127.999 207.356 C 149.628 207.357 170.37 198.765 185.664 183.471 C 200.958 168.177 209.55 147.435 209.549 125.806 C 209.55 104.178 200.958 83.435 185.664 68.141 C 170.37 52.848 149.628 44.256 127.999 44.256 L 127.999 44.256 Z M 127.999 73.433 C 156.924 73.433 180.372 96.881 180.372 125.806 C 180.372 154.731 156.924 178.18 127.999 178.18 C 99.074 178.18 75.626 154.731 75.626 125.806 C 75.626 96.881 99.074 73.433 127.999 73.433 L 127.999 73.433 Z"/>
  </g>
  <circle fill="#A7A7F1" cx="0" cy="0" r="1" transform="matrix(0,-65.24,-65.24,0,128,125.806)" vector-effect="non-scaling-stroke"/>
  <circle fill="#8F76E4" cx="0" cy="0" r="1" transform="matrix(0,-61.162,-61.162,0,128,125.806)" vector-effect="non-scaling-stroke"/>
  <circle fill="#8C59D9" cx="0" cy="0" r="1" transform="matrix(0,-40.775,-40.775,0,128,125.806)" vector-effect="non-scaling-stroke"/>
  <circle fill="#7839B7" cx="0" cy="0" r="1" transform="matrix(-2.837,-20.189,-20.189,2.837,128.102,125.806)" vector-effect="non-scaling-stroke"/>
  <g opacity=".3">
   <circle fill="#FFFFFF" cx="0" cy="0" r="1" transform="matrix(6.057,-0.851,0.851,6.057,136.155,117.651)" vector-effect="non-scaling-stroke"/>
  </g>
  <g opacity=".3">
   <circle fill="#FFFFFF" cx="0" cy="0" r="1" transform="matrix(2.019,-0.284,0.284,2.019,119.845,133.961)" vector-effect="non-scaling-stroke"/>
  </g>
  <g opacity=".2">
   <circle fill="#FFFFFF" cx="0" cy="0" r="1" transform="matrix(24.465,0,0,24.465,154.504,99.303)" vector-effect="non-scaling-stroke"/>
  </g>
  <g opacity=".4">
   <path fill="#FFFFFF" d="M 128 36.102 C 104.209 36.102 81.392 45.553 64.569 62.376 C 47.747 79.199 38.296 102.015 38.296 125.806 C 38.308 126.088 38.322 126.371 38.337 126.652 C 38.99 77.593 78.936 38.159 128 38.141 C 177.198 38.161 217.199 77.804 217.663 126.999 C 217.679 126.601 217.693 126.204 217.704 125.806 C 217.704 102.015 208.253 79.199 191.431 62.376 C 174.608 45.553 151.791 36.102 128 36.102 L 128 36.102 Z"/>
  </g>
 </g>
 <g opacity=".4">
  <linearGradient id="_lgradient_48" x1=".517" x2=".517" y1="0" y2="1">
   <stop offset="0%" style="stop-color:rgb(255,255,255)"/>
   <stop offset="12.5%" stop-opacity=".098" style="stop-color:rgb(255,255,255)"/>
   <stop offset="92.5%" stop-opacity=".098" style="stop-color:rgb(0,0,0)"/>
   <stop offset="100%" stop-opacity=".498" style="stop-color:rgb(0,0,0)"/>
  </linearGradient>
  <path fill="none" stroke="url(#_lgradient_48)" stroke-linecap="round" stroke-linejoin="round" stroke-width="4.077" d="M 165.685 11.947 C 239.74 11.947 250.324 22.504 250.324 96.491 L 250.324 155.742 C 250.324 229.728 239.74 240.285 165.685 240.285 L 90.315 240.285 C 16.26 240.285 5.676 229.728 5.676 155.742 L 5.676 96.491 C 5.676 22.504 16.26 11.947 90.315 11.947 L 165.685 11.947 Z" vector-effect="non-scaling-stroke"/>
 </g>
</svg>
